assets/icons/icon_bodylight_v2.svg

<svg width="30" height="30" viewBox="0 0 30 30" fill="none" xmlns="http://www.w3.org/2000/svg">
<path d="M11.7952 8.6614C11.8001 8.62542 11.7965 8.58884 11.7847 8.55441C11.773 8.51998 11.7534 8.48861 11.7275 8.46267L10.7947 7.49449H18.7259V8.4321L20.0912 19.775H10.456L11.7952 8.6614ZM22.3319 8.95695V13.543L20.112 15.6985L19.3043 8.95695H22.3319ZM10.1694 20.2744H20.3778C20.4143 20.274 20.4504 20.2661 20.4836 20.2512C20.5168 20.2362 20.5465 20.2147 20.5706 20.1878C20.5938 20.1613 20.6113 20.1305 20.622 20.0972C20.6328 20.0639 20.6365 20.0289 20.6331 19.9942L20.2162 16.3304L22.7905 13.808C22.8155 13.7853 22.8354 13.7577 22.8489 13.7269C22.8623 13.6962 22.8691 13.6631 22.8687 13.6297V8.70726C22.8687 8.64104 22.8418 8.57753 22.7939 8.53071C22.746 8.48388 22.681 8.45758 22.6133 8.45758H19.2418V8.38624V7.2499C19.2425 7.21648 19.2363 7.18326 19.2234 7.1523C19.2105 7.12134 19.1912 7.0933 19.1668 7.0699C19.1424 7.0465 19.1133 7.02825 19.0814 7.01626C19.0495 7.00428 19.0154 6.99881 18.9812 7.00021H10.2058C10.156 6.99858 10.1069 7.01186 10.065 7.03826C10.0231 7.06467 9.99042 7.10295 9.97135 7.14799C9.9514 7.19258 9.94521 7.24189 9.95355 7.28987C9.96188 7.33786 9.98437 7.38241 10.0183 7.41806L11.2793 8.71745L9.91924 19.9942C9.91452 20.0289 9.91768 20.0643 9.92848 20.0978C9.93929 20.1312 9.95748 20.162 9.98177 20.1878C10.0044 20.2151 10.033 20.237 10.0655 20.252C10.098 20.267 10.1335 20.2746 10.1694 20.2744Z" stroke="white" stroke-width="0.473223" stroke-miterlimit="10"/>
<path d="M5.58365 15.673L7.61075 16.845C7.64586 16.8689 7.6878 16.8814 7.7306 16.8806C7.76818 16.8801 7.80512 16.871 7.83855 16.8542C7.87199 16.8374 7.90102 16.8134 7.92341 16.7838C7.93836 16.7606 7.94834 16.7346 7.95277 16.7075C7.95719 16.6803 7.95595 16.6526 7.94914 16.6259C7.94233 16.5993 7.93007 16.5743 7.91311 16.5524C7.89615 16.5304 7.87484 16.5121 7.85045 16.4985L5.82857 15.3214C5.77756 15.2917 5.71692 15.282 5.6589 15.2943C5.60087 15.3066 5.54977 15.3399 5.51591 15.3876C5.49999 15.4103 5.48908 15.4361 5.48386 15.4631C5.47864 15.4902 5.47924 15.518 5.48561 15.5449C5.49198 15.5717 5.50399 15.5969 5.52086 15.619C5.53774 15.641 5.55912 15.6594 5.58365 15.673Z" stroke="white" stroke-width="0.473223" stroke-miterlimit="10"/>
<path d="M7.741 19.1127C7.741 19.077 7.642 19.0515 7.51172 19.0515H5.22929C5.09901 19.0515 5 19.077 5 19.1127C5 19.1483 5.09901 19.1738 5.22929 19.1738H7.51172C7.642 19.1738 7.741 19.1483 7.741 19.1127Z" stroke="white" stroke-width="0.473223" stroke-miterlimit="10"/>
<path d="M7.70982 21.105L5.51076 21.8796C5.48493 21.8874 5.46108 21.9005 5.44075 21.9179C5.42042 21.9354 5.40407 21.9568 5.39277 21.9809C5.38146 22.0049 5.37546 22.031 5.37514 22.0574C5.37482 22.0839 5.38019 22.1101 5.39091 22.1344C5.4116 22.1705 5.4419 22.2005 5.4786 22.2211C5.5153 22.2417 5.55703 22.2523 5.59935 22.2516C5.62864 22.2568 5.65866 22.2568 5.68794 22.2516L7.87136 21.4668C7.89752 21.4604 7.92188 21.4483 7.94269 21.4315C7.9635 21.4147 7.98024 21.3936 7.99171 21.3697C8.00317 21.3458 8.00907 21.3198 8.00899 21.2934C8.0089 21.267 8.00283 21.241 7.99122 21.2172C7.96639 21.1681 7.92407 21.1296 7.87224 21.109C7.8204 21.0883 7.76264 21.0869 7.70982 21.105Z" stroke="white" stroke-width="0.473223" stroke-miterlimit="10"/>
<path d="M22.0818 16.7839C22.1028 16.8136 22.1308 16.8379 22.1635 16.8548C22.1962 16.8716 22.2325 16.8805 22.2694 16.8807C22.3122 16.8815 22.3542 16.869 22.3893 16.845L24.4164 15.673C24.4409 15.6595 24.4623 15.6411 24.4792 15.6191C24.496 15.597 24.508 15.5718 24.5144 15.5449C24.5208 15.5181 24.5214 15.4903 24.5162 15.4632C24.5109 15.4361 24.5 15.4104 24.4841 15.3877C24.4512 15.3403 24.401 15.3071 24.3439 15.2948C24.2867 15.2825 24.2269 15.292 24.1767 15.3214L22.1496 16.4985C22.125 16.5121 22.1037 16.5305 22.0868 16.5525C22.0699 16.5746 22.0579 16.5998 22.0515 16.6266C22.0452 16.6535 22.0446 16.6813 22.0498 16.7084C22.055 16.7355 22.0659 16.7612 22.0818 16.7839Z" stroke="white" stroke-width="0.473223" stroke-miterlimit="10"/>
<path d="M24.7708 19.0515H22.4883C22.358 19.0515 22.259 19.077 22.259 19.1127C22.259 19.1483 22.358 19.1738 22.4883 19.1738H24.7708C24.901 19.1738 25 19.1483 25 19.1127C25 19.077 24.9062 19.0515 24.7708 19.0515Z" stroke="white" stroke-width="0.473223" stroke-miterlimit="10"/>
<path d="M24.4893 21.8795L22.3006 21.105C22.2472 21.0817 22.1866 21.0793 22.1314 21.0982C22.0762 21.1172 22.0305 21.156 22.0036 21.2069C21.9929 21.2308 21.9876 21.2567 21.9879 21.2828C21.9883 21.3089 21.9943 21.3346 22.0057 21.3583C22.017 21.3819 22.0334 21.4029 22.0537 21.4199C22.074 21.4368 22.0978 21.4493 22.1235 21.4566L24.3069 22.2413C24.3362 22.2466 24.3662 22.2466 24.3955 22.2413C24.4378 22.242 24.4795 22.2315 24.5162 22.2108C24.5529 22.1902 24.5832 22.1602 24.6039 22.1241C24.6131 22.1007 24.6173 22.0758 24.6165 22.0507C24.6157 22.0257 24.6097 22.0011 24.5991 21.9783C24.5884 21.9555 24.5732 21.9351 24.5543 21.9181C24.5355 21.9011 24.5134 21.888 24.4893 21.8795Z" stroke="white" stroke-width="0.473223" stroke-miterlimit="10"/>
<path d="M20.31 21.8796H9.68991C9.54921 21.8796 9.43457 21.9102 9.43457 21.9459C9.43457 21.9816 9.54921 22.007 9.68991 22.007H20.31C20.4507 22.007 20.5653 21.9765 20.5653 21.9459C20.5653 21.9153 20.4507 21.8796 20.31 21.8796Z" stroke="white" stroke-width="0.473223" stroke-miterlimit="10"/>
</svg>

<svg xmlns="http://www.w3.org/2000/svg" width="30" height="30" fill="none" viewBox="0 0 30 30"><path stroke="#fff" stroke-miterlimit="10" stroke-width=".473" d="M11.795 8.661a.23.23 0 0 0-.068-.198l-.932-.969h7.93v.938l1.366 11.343h-9.635zm10.537.296v4.586l-2.22 2.156-.808-6.742zM10.169 20.274h10.209a.27.27 0 0 0 .193-.086.26.26 0 0 0 .062-.194l-.417-3.664 2.575-2.522a.24.24 0 0 0 .078-.178V8.707a.25.25 0 0 0-.075-.176.26.26 0 0 0-.18-.073h-3.372V7.25a.24.24 0 0 0-.075-.18.25.25 0 0 0-.186-.07h-8.775a.25.25 0 0 0-.141.038.24.24 0 0 0-.094.11.245.245 0 0 0 .047.27l1.261 1.3-1.36 11.276a.24.24 0 0 0 .063.194.24.24 0 0 0 .187.086ZM5.584 15.673l2.027 1.172a.2.2 0 0 0 .12.036.25.25 0 0 0 .192-.097.2.2 0 0 0-.073-.285L5.83 15.32a.24.24 0 0 0-.313.067.197.197 0 0 0 .068.285ZM7.741 19.113c0-.036-.099-.061-.23-.061H5.23c-.13 0-.229.025-.229.06 0 .036.099.062.23.062h2.282c.13 0 .229-.026.229-.061ZM7.71 21.105l-2.2.775a.2.2 0 0 0-.117.1.19.19 0 0 0-.002.154.23.23 0 0 0 .208.118q.045.008.089 0l2.183-.785a.18.18 0 0 0 .12-.097.18.18 0 0 0 0-.153.23.23 0 0 0-.119-.108.23.23 0 0 0-.162-.004ZM22.082 16.784a.23.23 0 0 0 .187.097.2.2 0 0 0 .12-.036l2.027-1.172a.2.2 0 0 0 .098-.128.2.2 0 0 0-.03-.157.234.234 0 0 0-.307-.066l-2.027 1.177a.2.2 0 0 0-.098.128.2.2 0 0 0 .03.157ZM24.77 19.052h-2.282c-.13 0-.229.025-.229.06 0 .036.099.062.23.062h2.282c.13 0 .229-.026.229-.061s-.094-.061-.23-.061ZM24.49 21.88l-2.19-.775a.23.23 0 0 0-.169-.007.23.23 0 0 0-.127.109.18.18 0 0 0 .05.213.2.2 0 0 0 .07.037l2.183.784q.045.009.088 0a.24.24 0 0 0 .209-.117.18.18 0 0 0-.05-.206.2.2 0 0 0-.065-.038ZM20.31 21.88H9.69c-.14 0-.255.03-.255.066s.114.061.255.061h10.62c.14 0 .255-.03.255-.061 0-.03-.114-.066-.255-.066Z"/></svg>
